X: 3430
T: RHINE WALTZ
C: Strauss
%R: waltz
B: James Kerr "Merry Melodies" v.3 p.49 #430
Z: 2016 John Chambers <jc:trillian.mit.edu>
M: 3/4
L: 1/8
K: G
D2 |\
GFGABc | dgfgfg | GFGABc | dgfgfg |\
A4fg | a4g2 | f2gfge | d4 ::\
(Bc) |\
d2b2a2 | g2f2e2 | d2d^cdc | (d4B2) |
c2cccc | (c4A2) | B2BBBB | B4Bc |\
d2b2a2 | g2f2e2 | d2dddd | d4Bc |\
d2b2a2 | d2b2a2 | [gB][gB][g2B2][g2B2] | [g4B4] :|

%%sep 1 1 500
%%sep 1 1 500

